X:435
T: Morning Lark
M: 6/8
L: 1/8
R: Jig
K: D
B|AFD D2A,|DEF Adc|BGG DGG|B2B BdB|
AFD D2A,|DEF A3|def gfe|fdc d2 :|
B|ABd fdd|add fdB|Add fed|edB BAF|
Add fdd|add fdd|faf ede|fdc d2 :|
